X: 23835
T: Little Sara
R: jig
M: 6/8
K: Eminor
A|:BGE cBA|BGE GAB|cee dBG|AFD DFA|
BGE cBA|BGE GAB|cee dBG|AFD E2A:|
Bee edc|BGE GAB|cee dBG|AFD DFA|
Bee edc|BGE GAB|cee dBG|AFD E2 A|
Bee edc|BGE GAB|cgg dgg|fdA AFA|
Bee edc|BGE GAB|cee dBG|AFD E3||

